brandFactory_export/3.Masa/Garaje_3Masa.svg

<?xml version="1.0" encoding="UTF-8"?>
<svg width="24px" height="24px" viewBox="0 0 24 24" version="1.1" xmlns="http://www.w3.org/2000/svg" xmlns:xlink="http://www.w3.org/1999/xlink">
    <title>3.Masa/Garaje_3Masa</title>
    <g id="Symbols" stroke="none" stroke-width="1" fill="none" fill-rule="evenodd">
        <g id="3.Masa/Garaje_3Masa" fill="#5CB615" fill-rule="nonzero">
            <path d="M7.02521008,23.6235294 L7.02521008,21.1630252 L16.5647059,21.1630252 L16.5647059,23.6235294 L7.02521008,23.6235294 Z M7.02521008,19.8655462 L7.02521008,17.4016807 L16.5613445,17.4016807 L16.5613445,19.8655462 L7.02521008,19.8655462 Z M7.02521008,15.9563025 L7.02521008,13.492437 L16.5613445,13.492437 L16.5613445,15.9563025 L7.02521008,15.9563025 Z M23.1159664,10.2756303 C23.6067227,10.7563025 23.7546218,11.4386555 23.5058824,12.0504202 C23.2268908,12.7294118 22.5344538,13.1697479 21.7411765,13.1697479 L20.8470588,13.1697479 L20.8470588,21.8991597 C20.8470588,22.8504202 20.0033613,23.6201681 18.9647059,23.6201681 L18.0403361,23.6201681 L18.0403361,12.7831933 C18.0403361,12.3764706 17.7109244,12.0436975 17.3008403,12.0436975 L6.28571429,12.0436975 C5.8789916,12.0436975 5.54621849,12.3731092 5.54621849,12.7831933 L5.54621849,23.6235294 L4.51764706,23.6235294 C3.4789916,23.6235294 2.63529412,22.8504202 2.63529412,21.902521 L2.63529412,13.1731092 L1.88571429,13.1731092 C1.09243697,13.1731092 0.4,12.7327731 0.121008403,12.0537815 C-0.131092437,11.4386555 0.0168067227,10.7563025 0.507563025,10.2756303 L10.4369748,0.54789916 C11.1798319,-0.181512605 12.4436975,-0.181512605 13.1865546,0.54789916 L23.1159664,10.2756303 Z" id="Garaje_3Masa"></path>
        </g>
    </g>
</svg>

<svg width="24" height="24" viewBox="0 0 24 24" xmlns="http://www.w3.org/2000/svg"><path d="M7.025 23.624v-2.461h9.54v2.46h-9.54zm0-3.758v-2.464h9.536v2.464H7.025zm0-3.91v-2.464h9.536v2.464H7.025zm16.091-5.68c.49.48.639 1.163.39 1.774-.28.68-.972 1.12-1.765 1.12h-.894v8.73c0 .95-.844 1.72-1.882 1.72h-.925V12.783a.74.74 0 00-.74-.74H6.287a.74.74 0 00-.74.74v10.84H4.518c-1.039 0-1.883-.773-1.883-1.72v-8.73h-.75c-.793 0-1.485-.44-1.764-1.12-.252-.614-.104-1.297.387-1.777L10.437.548c.743-.73 2.007-.73 2.75 0l9.929 9.728z" fill="#5CB615" fill-rule="nonzero"/></svg>
